X: 20202
T: CA' THE EWES
Q: "Slow"
%R: air, strathspey
B: "Edinburgh Repository of Music" v.2 p.20 #2
F: http://digital.nls.uk/special-collections-of-printed-music/pageturner.cfm?id=87776133
Z: 2015 John Chambers <jc:trillian.mit.edu>
M: 2/4
L: 1/8
K: Em
[|\
E>F B2 | A<F A2 | F>E D>d | ^c>d e2 |\
f>B B>B | A>d F2 | E2 F>A | B2 B2 |]
[|\
E>F B>A | F>F A2 | F>E D>d | ^c>d ef |\
f>B B>B | A>d F2 | E>E FA | B3 z |]

%%sep 2 1 500
%%sep 1 1 500

